X:9
T:Ethel Fraser's
R:strathspey
C:Brenda Stubbert
O:20th Century Cape Breton
S:Silver Apple News,1993
A:<http://www.capebretonet.com/Music/Stubbert>
D:House Sessions, Stubbert Music
B:Brenda Stubbert's Collection of Fiddle Tunes ISBN 0969-1181-4-7
N:Contacts ...
N:Recordings and bookings
N:..... <brenda@cranfordpub.com>
N:Tune books and related recordings
N:..... Cranford Publications <http://www.cranfordpub.com>
H:Copyrights:published by Stubbert Music (SOCAN)
Z:This abc transcription is for personal use only,
Z:provided this notice remains attached.
Z:Used by permission of the composer and publisher.
Z:Paul Stewart Cranford <psc@cranfordpub.com>
L:1/8
Q244
M:C
K:A
F|E>FA>B c>ba<f|e>cB>A c>AF<A|E>FA>B c>ba<f|e>cB<c A/A/A A:|!
g|a>gf<d e>dc>e|f<de>c B>AF>g|a>gf<d e>dc>A|E>dc>B A/A/A A>g|!
a>gf<d e>dc>e|f<de>c B>AF>A|E>FA>B c>ba<f|e>cB<c A/A/A A|]!

